X:1
T:Title
%%score { 1 | 2 }
L:1/8
Q:1/4=90
M:6/8
K:D
V:1 treble nm="Grand Piano"
V:2 bass 
V:1
 [A,FA]2 [A,DF] [A,FA]2 [B,DG] | [A,DF]2[K:bass] [G,CE] [F,D]3 | [Fd]2 [Ac] [GB]2 [Gd] | %3
w: William~F.~Sherwin * * *|||
 [FA]3 [DF]3 | [CE]2 [B,D] [CE]2 [A,DF] | [B,DG]2 [DGB] [DGB]3 | %6
w: |||
 [DFA]2 [A,DF][K:bass] [G,CE]2 [F,D] | [G,CE]3 [F,D]3 |] %8
w: ||
V:2
 D,2 D, D,2 G,, | A,,2 A,, D,3 | [D,A,]2 [D,D] [D,D]2 [D,B,] | [D,D]3 [D,A,]3 | %4
 [A,,A,]2 [A,,A,] [A,,A,]2 D, | G,,2 G, G,3 | D,2 D, A,,2 B,, | A,,3 D,3 |] %8

